X: 1
T:Far O'er the Sea
M:C
L:1/8
Q:80
C:
S:March
K:HP
[| f|
{gAGAG}A2{gBd}B{e}A{Gdc}d2{gdG}d3/2c/2|
{gBd}B{e}A{g}B/2d3/2{e}A2{Gdc}d3/2c/2|
{g}B2{GdGe}B3/2c/2{Gdc}d{g}c{Gdc}df|  !
{g}e2{GdG}e3/2f/2{gef}e3f{gAGAG}A2{gBd}B{e}A{Gdc}d2{gdG}d3/2c/2|
{gBd}B3/2c/2{Gdc}d3/2e/2{gfg}f3{g}A|
{gBd}B2{gef}e3/2d/2{gde}dc{g}B3/2c/2|  !
{Gdc}d2{gdG}d3/2f/2{Gdc}d2|]
{g}dc|
{gBd}B2{e}G{d}B{Gdc}d2{g}cB|  !
{gBd}B{e}A{g}A3/2{d}B/2{G}A2{Gdc}dc|
{g}B2{GdGe}B3/2c/2{Gdc}d{g}c{Gdc}df|
{g}e2{GdG}e3/2f/2{gef}e3{g}A{gfg}f2{gf}g{a}f{gBG}B2{g}c3/2d/2|  !
{gef}e2{gfg}fe{gAGAG}A2{Gdc}d3/2c/2|
{gBd}B2{gef}e3/2d/2{gde}dc{g}B3/2c/2|
{Gdc}d2{gdG}d3/2f/2{Gdc}d3|]  !
{g}A|
{Gdc}d3/2e/2{gfg}f3/2e/2{Gdc}d2{e}A{Gdc}d|
{gcd}c{e}B{GdGe}B3/2{d}c/2{gBd}B4|
{gef}e3/2f/2{gf}g3/2f/2{gef}e3d|  !
{gcd}c{e}A{GdG}c3/2{g}B/2{G}A3{gf}g{a}f3/2g/2{ag}a3/2g/2{fg}fd{gdG}d{g}e
/2f/2|
{gf}g{a}B{GdGe}B3/2{d}c/2{gBd}B3e|
{gef}e3/2d/2{gcd}cB{gBd}B{e}A{Gdc}d3/2e/2|  !
{gfg}f4{gf}g{a}c{Gdc}d3|]
